X:1
T:Maharashtra, 87.87 D
T:Maharashtra, 87.87 D
T:Daniel Brink Towner, 1899
T:Public Domain Courtesy of the Cyber Hymnal™
C:Daniel Brink Towner, 1899
Z:Public Domain
Z:Courtesy of the Cyber Hymnal™
%%score ( 1 2 ) ( 3 4 )
L:1/8
Q:1/4=105
M:4/4
K:C
V:1 treble 
V:2 treble 
V:3 bass 
V:4 bass 
V:1
 [CE]2 | [EG]3 [EG] [FA][EG][CE][DF] | [EG]6 [CE]2 | [DG]3 [DG] [DF]2 [B,D]2 | [CF]2 [CE]4 [CE]2 | %5
 [EG]3 [EG] [FA][EG][CE][DF] | [EG]6 C2 | [CE]3 [D^F] [DG]2 [CE]2 | [B,D]2 C4 [EG]2 | %9
 [EG]3 [EG] !fermata![CE]2 [Gc]2 | [Ac]3 [FA] !fermata![EG]2 [EG]2 | [FB]3 [FB] [FA]2 [FB]2 | %12
 [Fd]2 [Ec]4 [EG]2 | [Ge]3 [Ge] [Gd]2 [Gc]2 | [Fd]3 [Fd] [Fc]2 [FA]2 | [EG]3 [EG] [FA]2 [FB]2 | %16
 ([Fd]2 [Ec]4) |] %17
V:2
 x2 | x8 | x8 | x8 | x8 | x8 | x6 C2 | x8 | x2 C4 x2 | x8 | x8 | x8 | x8 | x8 | x8 | x8 | x6 |] %17
V:3
 [C,G,]2 | [C,C]3 [C,C] [C,C][C,C][C,G,][C,G,] | [C,C]6 [C,G,]2 | %3
 [G,,B,]3 [G,,B,] [G,,B,]2 [G,,G,]2 | [C,A,]2 [C,G,]4 [C,G,]2 | %5
 [C,C]3 [C,C] [C,C][C,C][C,G,][C,G,] | [C,C]6 [C,E,]2 | [A,,A,]3 [A,,C] [G,,B,]2 [G,,G,]2 | %8
 [G,,F,]2 [C,E,]4 [C,C]2 | [C,C]3 [C,C] !fermata![C,G,]2 [E,G,]2 | %10
 F,3 [F,A,] !fermata![C,C]2 [C,C]2 | [G,D]3 [G,D] [G,B,]2 G,2 | [C,G,]2 [C,G,]4 [C,C]2 | %13
 [C,C]3 [C,C] [D,B,]2 [E,C]2 | [F,A,]3 [F,A,] [F,A,]2 [F,C]2 | [G,C]3 [G,C] [G,B,]2 G,2 | %16
 [C,G,]2 [C,G,]4 |] %17
V:4
 x2 | x8 | x8 | x8 | x8 | x8 | x8 | x8 | x8 | x8 | F,3 x5 | x6 G,2 | x8 | x8 | x8 | x6 G,2 | x6 |] %17

